X:1
T:Quand mon mari
T:Jean de Castro
T:Source : La fleur des chansons à 3---Louvain---P.Phalèse---1574. Editor : André Vierendeels (09/09/18) Notes : Original clefs : G2, C2, C3 Original note values have been halved Editorial accidentals above the staff
T:Quand mon mari
T:©
T:©
T:©
T:©
C:Jean de Castro
Z:©
%%score [ 1 2 3 ]
L:1/8
Q:1/4=96
M:2/2
K:F
V:1 treble nm="Soprano" snm="S"
V:2 treble nm="Alto" snm="A"
V:3 treble-8 nm="Tenor" snm="T"
V:1
 G2 de f3 e | d2 c2 d2 z d | B2 A2 Gdd>e | f2 d2 c2 A2 | =B2 d3 _edd | cB A2 G2 z A | B2 BA cd c2 | %7
w: Quand mon ma- ry vient|de de- hors, vient|de de- hors, quand mon ma-|ry vient de de-|hors, ma ren- t'est d'e-|stre bat- tu- e, ma|ren- t'est d'e- stre bat- tu-|
 B2 dd f3 e | d2 c2 d d2 d | B2 A2 G d2 d | f2 d2 c2 A2 |"^b" =B2 d3 edd | cB A2 G2 z A | %13
w: e, il prend la cueil-|ler du pot, la cueil-|ler du pot, il prend|la cueil- ler du|pot, à la tes- ste'il|me la ru- e, à|
 B2 BA cd c2 | =B2 d4 e2 | f3 d cd B2 | A2 A2 B2 c2 | z2 A2 AA G2 | A2 AA =B2 d2 | d2 c2 d2 ff | %20
w: la tes- te'il me la ru-|e, i'ay grand|peur qu'il ne me tu-|e, i'ay grand peur|qu'il ne me tu-|e, c'est un faux, vil-|lain ia- loux, c'est un|
 eddc d4 | z2 AA A4 | z2 dd c=BcA | G2 dd c=BcA | G4 z2 AA | A4 z2 dd | c=BcA G2 dd | c=BcA GGGG | %28
w: faux, vil- lain ia- loux,|ri- o- teux,|ie suis ieu- n'et il est|vieux, ie suis ieu- n'et il est|vieux, ri- o-|teux, ie suis|ieu- n'et il est vieux, ie suis|ie- n'et il est vieux, et il est|
 G8 |] %29
w: vieux.|
V:2
 z8 | D2 G>A B2 A2 | G2 F2 GBBB | A2 G2 G2 ^F2 | G2 =B3 cAB | AG ^F2 G2 F2- | FGFF ED A2 | %7
w: |Quand mon ma- ry vient|de de- hors, quand mon ma-|ry vient de de-|hors, ma ren- t'est d'e-|stre bat- tu- e, ma|_ ren- t'est d'e- stre bat- tu-|
 D2 z2 z4 | D2 G2 B2 A2 | G2 F2 G B2 B | A2 G2 G2 F2 | G2 =B3 cAB |"^-natural" AG F2 G2 ^F2- | %13
w: e,|il prend la cueil-|ler du pot, il prend|la cueil- ler du|pot, à le te- ste'il|me la ru- e, à|
 FGFF ED A2 | D4 G4 | A2 BB AF G2 | F2 F4 G2 | A3 F EF D2 | E2 F^F G3 D | F2 E2 D2 DD | EFGE DABB | %21
w: la te- ste'il me la ru- e,|i'ay grand|peur qu'il ne me tu- e,|iay grand peur|qu'il ne me tu- *|e, c'est un faux, vil-|lain ia- loux, c'est un|faux, vil- lain ia- loux, c'est un vil-|
 A2 FF F2 FE | F2 BB AGG^F |"^b" G B2 B AGG^F | G=Bcc A2 FF | F2 FE F2 BB | AGGF G B2 B | %27
w: lain ri- o- teux, grom- me-|leux, ie suis ieu- n'et il est|vieux, ie suis ieu- n'est il est|vieux, c'est un vil- lain ri- o-|teux, grom- me- leux, ie suis|ieu- n'et il est vieux, ie suis|
 AGG^F GD_EE | D8 |] %29
w: ieu- n'et il est vieux, et il est|vieux.|
V:3
 g2 gg f2 d2 | f2 e2 d4 | z4 G2 B>c | d2 B2 c2 d2 | G2 z g2 cdB |"^b""^b" FG d2 G2 d2- | %6
w: Quand mon ma- ry vient|de de- hors,|quand mon ma-|ry vient de de-|hors, ma ren- t'est d'e-|stre bat- tu- e, ma-|
"^-natural" d_edd cB A2 | G2 gg f2 d2 | f2 e2 d4 | z4 G2 B2 | d2 B2 c2 d2 |"^b" G2 z g2 cdB | %12
w: * ren- t'est d'e- stre bat- tu-|e, il prend la cueil-|ler du pot,|il prend|la cueil- ler du|pot, à la te- ste'il|
"^b" FG d2 G2 d2- | d_edd cB A2 |"^b" G4 z4 | z4 z4 | z2 d4 e2 | f3 d ^cd B2 |"^b" A2 dd G2 B2 | %19
w: me la ru- e, à|_ la te- ste'il me ma ru-|e,||i'ay grand|peur qu'il ne me tu-|e, c'est un faux, vil-|
 A2 A2 d2 BB | cdGA ddBG | d4 z2 dA | d2 BB cGcd |"^b" G2 BB cGcd | Ggcc d4 | z2 dG d2 BB | %26
w: lain ia- loux, c'est un|faux, vil- ain ia- loux, c'est in vil-|lain, grom- me-|leux, ie suis ieu- n'et il est|vieux, ie suis ieu- n'et il est|vieux, c'est un vil- lain,|grom- me- leux, ie suis|
"^b""^b" cGcd G2 BB |"^b" cGcd GGcc | G8 |] %29
w: ieu- n'et il est vieux, ie suis|ieu- n'et il est vieux, et il est|vieux.|

